X:1
T:Title
%%score { ( 1 3 ) | 2 }
L:1/8
M:6/8
K:Bb
V:1 treble nm="Grand Piano"
V:3 treble 
V:2 bass 
V:1
 z3 z2[Q:1/4=104] [DF]/[DF]/ | [DF][EG][FA] [DB]2 [FB] | [GB][FA][EG] [DF]2 [DF] | %3
 [DF][DB][DB] [FB][Fc][Fd] |[M:5/8] c-c- c3 |[M:1/8] F/F/ |[M:3/4] dd d d2 [FB] | cB G [GB]2 G | %8
 FB BA Bc |[M:5/8] [DB]-[DB]- [DB]3 |[M:3/4] F4 GF | [DB]6[K:bass] | d4 cB | [EG]6 | %14
 [=Ec][Ec] [Ec]c Bc |[M:5/8] [Fd]-[Fd]- [Fd]3 |[M:1/8] [DF] |[M:3/4] dd d d2 [FB] | cB G [GB]2 G | %19
 FB BA Bc |[M:5/8] [DB]-[DB]- [DB]3 |] %21
V:2
 z3 z2 [B,,B,]/[B,,B,]/ | [B,,B,][B,,B,][B,,B,] [B,,B,]2 [D,B,] | %2
 [E,B,][E,B,][E,B,] [B,,B,]2 [B,,B,] | [B,,B,][B,,B,][B,,B,] [D,B,][C,A,][B,,B,] | %4
[M:5/8] [F,A,F]-[F,A,F]- [F,A,F]3 |[M:1/8] [F,A,]/[F,A,]/ | %6
[M:3/4][K:treble] [B,F][B,F] [B,F] [B,F]2[K:bass] [D,B,] | [E,G,E][E,G,E] [E,B,E] [E,B,]2 [E,B,E] | %8
 [F,B,D][F,D] [F,D][F,C] [F,D][F,E] |[M:5/8] [B,,F,]-[B,,F,]- [B,,F,]3 |[M:3/4] D4 ED | %11
 [B,,F,]B,, B,, .B,,3 | F4 ED | E,E, E, .E,3 | [C,B,][C,B,] [C,B,][F,A,F] [F,G,F][F,A,F] | %15
[M:5/8] [B,,B,]-[B,,B,]- [B,,B,]3 |[M:1/8] [B,,B,] | %17
[M:3/4][K:treble] [B,F][B,F] [B,F] [B,F]2[K:bass] [D,B,] | [E,G,E][E,G,E] [E,B,E] [E,B,]2 [E,B,E] | %19
 [F,B,D][F,D] [F,D][F,C] [F,D][F,E] |[M:5/8] [B,,F,]-[B,,F,]- [B,,F,]3 |] %21
V:3
 x6 | x6 | x6 | x6 |[M:5/8] x5 |[M:1/8] x |[M:3/4] x6 | x6 | x6 |[M:5/8] x5 |[M:3/4] x6 | %11
 z[K:bass] F, F, .F,3 | x6 | B,B, B, .B,3 | x6 |[M:5/8] x5 |[M:1/8] x |[M:3/4] x6 | x6 | x6 | %20
[M:5/8] x5 |] %21

